X: 26
T:Big Corral
% Nottingham Music Database
S:Kevin Briggs, via EF
M:4/4
L:1/4
K:A
E|"A"EF EA|"A"EF EA/2B/2|"A"cc/2A/2 ce|"E7"B3c|"A"EF EA|"A"EF EA/2B/2|\
"D"cc -"E7"c/2A/2B|"A"A3:||:
e/2c/2|"A"e4|"A"cA2A/2B/2|"A"cc/2A/2 ce|"E7"B3e/2c/2|"A"e4|"A"cA2A/2B/2|\
"D"cc/2A/2 "E7"cB|"A"A3:|


